packages/assets/static/images/icons/doc-xlsx.svg

<svg width="24" height="24" viewBox="0 0 24 24" xmlns="http://www.w3.org/2000/svg">
<path d="M14.4999 19.5C14.4999 19.7984 14.3814 20.0845 14.1704 20.2955C13.9595 20.5065 13.6733 20.625 13.3749 20.625H10.7499C10.4516 20.625 10.1654 20.5065 9.95445 20.2955C9.74347 20.0845 9.62495 19.7984 9.62495 19.5V14.25C9.62495 13.9516 9.74347 13.6655 9.95445 13.4545C10.1654 13.2435 10.4516 13.125 10.7499 13.125C11.0483 13.125 11.3345 13.2435 11.5454 13.4545C11.7564 13.6655 11.8749 13.9516 11.8749 14.25V18.375H13.3749C13.6733 18.375 13.9595 18.4935 14.1704 18.7045C14.3814 18.9155 14.4999 19.2016 14.4999 19.5ZM8.0312 13.3331C7.91097 13.2469 7.77492 13.1853 7.63084 13.1517C7.48675 13.1181 7.33746 13.1133 7.19151 13.1375C7.04556 13.1617 6.90582 13.2145 6.78029 13.2928C6.65476 13.3711 6.5459 13.4733 6.45995 13.5938L5.49995 14.9381L4.54088 13.5938C4.36684 13.351 4.10346 13.1872 3.80871 13.1386C3.51396 13.09 3.21196 13.1605 2.96916 13.3345C2.72637 13.5086 2.56265 13.7719 2.51404 14.0667C2.46543 14.3615 2.5359 14.6635 2.70995 14.9062L4.1162 16.875L2.70995 18.8438C2.62377 18.964 2.56211 19.1 2.5285 19.244C2.49488 19.3881 2.48997 19.5373 2.51404 19.6833C2.53811 19.8292 2.59069 19.969 2.66878 20.0946C2.74687 20.2203 2.84894 20.3293 2.96916 20.4155C3.08939 20.5016 3.2254 20.5633 3.36945 20.5969C3.5135 20.6305 3.66276 20.6354 3.80871 20.6114C3.95466 20.5873 4.09444 20.5347 4.22006 20.4566C4.34569 20.3785 4.4547 20.2765 4.54088 20.1562L5.49995 18.8081L6.45995 20.1562C6.63399 20.399 6.89737 20.5628 7.19212 20.6114C7.48687 20.66 7.78887 20.5895 8.03166 20.4155C8.27446 20.2414 8.43817 19.9781 8.48679 19.6833C8.5354 19.3885 8.46493 19.0865 8.29088 18.8438L6.88463 16.875L8.29088 14.9062C8.37744 14.786 8.43939 14.6499 8.47319 14.5056C8.50699 14.3614 8.51197 14.2119 8.48784 14.0657C8.46371 13.9196 8.41095 13.7796 8.33259 13.6539C8.25422 13.5282 8.1518 13.4192 8.0312 13.3331ZM19.5184 16.3378C19.0384 16.0144 18.4571 15.8466 17.9443 15.6984C17.6928 15.6305 17.4449 15.5495 17.2018 15.4556C17.4315 15.345 18.1121 15.3337 18.7084 15.4866C18.9922 15.5495 19.2893 15.5002 19.5376 15.3488C19.7858 15.1975 19.9658 14.956 20.0399 14.6749C20.1139 14.3938 20.0763 14.0949 19.9349 13.8409C19.7934 13.5869 19.5592 13.3976 19.2812 13.3125C18.9121 13.2214 18.5356 13.1631 18.1562 13.1381C17.2253 13.0763 16.4687 13.2394 15.8968 13.6228C15.618 13.81 15.3837 14.0561 15.2105 14.3438C15.0374 14.6316 14.9295 14.9538 14.8946 15.2878C14.7915 16.1072 15.1281 16.8131 15.8424 17.2744C16.2906 17.5641 16.8137 17.715 17.319 17.8612C17.6003 17.9447 18.0634 18.0769 18.2453 18.1922C18.2421 18.2152 18.2354 18.2377 18.2256 18.2587C18.0971 18.4041 17.3274 18.4266 16.689 18.2531C16.5458 18.2102 16.3955 18.1963 16.2469 18.2122C16.0982 18.228 15.9542 18.2733 15.8233 18.3455C15.6924 18.4176 15.5771 18.5151 15.4843 18.6323C15.3915 18.7495 15.323 18.884 15.2827 19.028C15.2425 19.1719 15.2313 19.3225 15.2499 19.4708C15.2685 19.6191 15.3165 19.7622 15.391 19.8918C15.4656 20.0214 15.5652 20.1348 15.6841 20.2254C15.803 20.3161 15.9387 20.3821 16.0834 20.4197C16.579 20.5531 17.0898 20.6221 17.6031 20.625C18.2087 20.625 18.8903 20.5153 19.4528 20.1422C19.7376 19.9539 19.9773 19.7049 20.1547 19.4132C20.3322 19.1215 20.443 18.7942 20.4793 18.4547C20.5937 17.5809 20.2496 16.8309 19.5165 16.3378H19.5184ZM2.87495 10.125V3.75C2.87495 3.25272 3.07249 2.77581 3.42412 2.42418C3.77575 2.07254 4.25267 1.875 4.74995 1.875H13.7499C13.8977 1.87488 14.0441 1.90389 14.1807 1.96035C14.3172 2.01681 14.4413 2.09962 14.5459 2.20406L19.7959 7.45406C19.9003 7.55862 19.9831 7.68272 20.0396 7.81929C20.0961 7.95586 20.1251 8.10222 20.1249 8.25V10.125C20.1249 10.4234 20.0064 10.7095 19.7954 10.9205C19.5845 11.1315 19.2983 11.25 18.9999 11.25C18.7016 11.25 18.4154 11.1315 18.2045 10.9205C17.9935 10.7095 17.8749 10.4234 17.8749 10.125V9.75H13.3749C13.0766 9.75 12.7904 9.63147 12.5795 9.4205C12.3685 9.20952 12.2499 8.92337 12.2499 8.625V4.125H5.12495V10.125C5.12495 10.4234 5.00642 10.7095 4.79544 10.9205C4.58446 11.1315 4.29831 11.25 3.99995 11.25C3.70158 11.25 3.41543 11.1315 3.20445 10.9205C2.99347 10.7095 2.87495 10.4234 2.87495 10.125ZM14.4999 7.5H16.6562L14.4999 5.34375V7.5Z"/>
</svg>

<svg viewBox="0 0 24 24" xmlns="http://www.w3.org/2000/svg" aria-hidden="true" fill="currentColor" height="24px" width="24px"><path d="M14.5 19.5a1.125 1.125 0 0 1-1.125 1.125H10.75A1.125 1.125 0 0 1 9.625 19.5v-5.25a1.125 1.125 0 1 1 2.25 0v4.125h1.5A1.125 1.125 0 0 1 14.5 19.5M8.03 13.333a1.126 1.126 0 0 0-1.571.26l-.96 1.345-.96-1.344a1.126 1.126 0 1 0-1.83 1.312l1.406 1.969-1.406 1.969a1.126 1.126 0 1 0 1.83 1.312l.96-1.348.96 1.348a1.126 1.126 0 1 0 1.83-1.312l-1.405-1.969 1.406-1.969a1.124 1.124 0 0 0-.26-1.573m11.487 3.005c-.48-.324-1.06-.491-1.574-.64a8 8 0 0 1-.742-.242c.23-.111.91-.122 1.506.03a1.125 1.125 0 0 0 .573-2.174 6.5 6.5 0 0 0-1.125-.174c-.93-.062-1.687.101-2.26.485a2.3 2.3 0 0 0-1.001 1.665c-.104.82.233 1.525.947 1.986.449.29.972.441 1.477.587.281.084.744.216.926.331a.2.2 0 0 1-.02.067c-.128.145-.898.168-1.536-.006a1.124 1.124 0 1 0-.606 2.167 6 6 0 0 0 1.52.205c.606 0 1.287-.11 1.85-.483a2.32 2.32 0 0 0 1.026-1.687c.115-.874-.23-1.624-.962-2.117zM2.875 10.125V3.75A1.875 1.875 0 0 1 4.75 1.875h9a1.13 1.13 0 0 1 .796.33l5.25 5.25a1.13 1.13 0 0 1 .329.795v1.875a1.125 1.125 0 1 1-2.25 0V9.75h-4.5a1.125 1.125 0 0 1-1.125-1.125v-4.5H5.125v6a1.125 1.125 0 1 1-2.25 0M14.5 7.5h2.156L14.5 5.344z"/></svg>
